!!!COM: Bach, Johann Sebastian
!!!OTL: Nun komm, der Heiden Heiland
!!!ONM: No. 28
!!!OCL: Erk
!!!YOE: Riemenschneider, Albert
!!!OPR: 371 Harmonized Chorales and 69 Chorale Melodies with Figured Bass
!!!OPT: Bach Chorale Harmonizations
**kern	**kern	**kern	**kern
! bass	! tenor	! alto	! soprano
*M4/4	*M4/4	*M4/4	*M4/4
*b:	*b:	*b:	*b:
=1	=1	=1	=1
8B	4d	4f#	4b
8A	.	.	.
4G	8c#	4e	4b
.	8B	.	.
8F#	4c#	4f#	4a
8E	.	.	.
8D	4B	8f#	4dd
8BB	.	16g	.
.	.	16a	.
=2	=2	=2	=2
8E	4.B	8g	8cc#
8D	.	8f#	8b
8E	.	4e	4cc#
8F#	8A#	.	.
2BB;	2F#;	2d;	2b;
=3	=3	=3	=3
4BB	8d	4f#	8b
.	8c#	.	8cc#
4B	4B	8f#	4dd
.	.	8g#	.
8An	4c#	4a	4ee
8Gn	.	.	.
4F#	4d	8a	4dd
.	.	8b	.
=4	=4	=4	=4
4E	4G	4cc#	4ee
4D	8A	8dd	4ff#
.	16B	8f#	.
.	16cn	.	.
2G;	2B;	2g;	2dd;
=5	=5	=5	=5
8F#	4A	4a	4dd
8E	.	.	.
8D	4e	4a	4ee
8C#	.	.	.
[8D	8d	8a	8ff#
8D]	8c#	8a#	8ee
8G	4B	4b	4dd
8F#	.	.	.
=6	=6	=6	=6
4E	4g	8cc#	8ee
.	.	8b	8dd
4F#	8c#	4a#	4cc#
.	8f#	.	.
2BB;	2d;	2f#;	2b;
=7	=7	=7	=7
8B	4d	4f#	4b
8A	.	.	.
4G#	8c#	4e#	4b
.	8B	.	.
8F#	4c#	8f#	4a
8E	.	8g#	.
8F#	4f#	8a	4dd
8G#	.	8b	.
=8	=8	=8	=8
8A#	8e	8f#	8cc#
8B	8d	[8b	8b
4F#	16c#	8b]	4cc#
.	16d	.	.
.	8e	8a#	.
2BB;	2d#;	2f#;	2b;
==	==	==	==
*-	*-	*-	*-
!!!CDT: 1685/3//-1750/7/28
!!!OCY: Deutschland
!!!AGN: chorale
!!!AST: Baroque
!!!AIN: vox
!!!YOY: 1941
!!!PPP: New York; London
!!!PPR: G. Schirmer
!!!ENC: David Huron
!!!EED: David Huron
!!!YEN: United States of America
!!!YER: 1992
!!!YEC: Copyright 1992 David Huron
!!!YEM: Rights to all derivative electronic formats reserved.
!!!YER: March 20, 1996
!!!AMT: simple quadruple
!!!EEV: 1.1
